lightbulb-on-20.svg

<svg fill="currentColor" viewBox="0 0 24 24"><path d="M1 11h3v2H1zm3.9-7.5L3.5 4.9 5.6 7 7 5.6zM13 1h-2v3h2zm7 10v2h3v-2zM10 22c0 .6.4 1 1 1h2c.6 0 1-.4 1-1v-1h-4zm9.1-18.5L17 5.6 18.4 7l2.1-2.1zM18 12c0 2.2-1.2 4.2-3 5.2V19c0 .6-.4 1-1 1h-4c-.6 0-1-.4-1-1v-1.8c-1.8-1-3-3-3-5.2 0-3.3 2.7-6 6-6s6 2.7 6 6m-2 0c0-2.21-1.79-4-4-4s-4 1.79-4 4 1.79 4 4 4 4-1.79 4-4"/></svg>

<svg  viewBox="0 0 24 24" fill="currentColor"><path  d="M1 11H4V13H1V11M4.9 3.5L3.5 4.9L5.6 7L7 5.6L4.9 3.5M13 1H11V4H13V1M20 11V13H23V11H20M10 22C10 22.6 10.4 23 11 23H13C13.6 23 14 22.6 14 22V21H10V22M19.1 3.5L17 5.6L18.4 7L20.5 4.9L19.1 3.5M18 12C18 14.2 16.8 16.2 15 17.2V19C15 19.6 14.6 20 14 20H10C9.4 20 9 19.6 9 19V17.2C7.2 16.2 6 14.2 6 12C6 8.7 8.7 6 12 6S18 8.7 18 12M16 12C16 9.79 14.21 8 12 8S8 9.79 8 12 9.79 16 12 16 16 14.21 16 12Z"/></svg>
